tools/download-figma-icons/icons/solid/district-heating.svg

<svg width="24" height="24" viewBox="0 0 24 24" fill="none" xmlns="http://www.w3.org/2000/svg">
<path d="M8.25005 7.28974C8.25005 7.82224 8.04755 8.07724 7.68755 8.48224C7.41005 8.78974 7.44005 9.26974 7.74755 9.53974C7.89005 9.66724 8.07005 9.72724 8.25005 9.72724C8.46005 9.72724 8.66255 9.64474 8.81255 9.47224C9.21005 9.02224 9.75005 8.41474 9.75005 7.28224C9.75005 6.14974 9.21005 5.53474 8.81255 5.08474C8.46755 4.69474 8.25005 4.45474 8.25005 3.89974C8.25005 3.34474 8.42255 3.14224 8.76755 2.75224L8.80505 2.70724C9.08255 2.39974 9.03005 1.94224 8.72255 1.67224C8.41505 1.39474 7.92005 1.44724 7.64255 1.75474C7.24505 2.20474 6.74255 2.76724 6.74255 3.89974C6.74255 5.03224 7.28255 5.63974 7.68005 6.08224C8.01755 6.46474 8.24255 6.71974 8.24255 7.28224L8.25005 7.28974Z" fill="black"/>
<path d="M12.0001 7.28974C12.0001 7.82224 11.7976 8.07724 11.4376 8.48224C11.1601 8.78974 11.1901 9.26974 11.4976 9.53974C11.6401 9.66724 11.8201 9.72724 12.0001 9.72724C12.2101 9.72724 12.4126 9.64474 12.5626 9.47224C12.9601 9.02224 13.5001 8.41474 13.5001 7.28224C13.5001 6.14974 12.9601 5.53474 12.5626 5.08474C12.2176 4.69474 12.0001 4.45474 12.0001 3.89974C12.0001 3.34474 12.1726 3.14224 12.5176 2.75224L12.5551 2.70724C12.8326 2.39974 12.7801 1.94224 12.4726 1.67224C12.1651 1.39474 11.6701 1.44724 11.3926 1.75474C10.9951 2.20474 10.4926 2.76724 10.4926 3.89974C10.4926 5.03224 11.0326 5.63974 11.4301 6.08224C11.7676 6.46474 11.9926 6.71974 11.9926 7.28224L12.0001 7.28974Z" fill="black"/>
<path d="M15.7501 7.28974C15.7501 7.82224 15.5476 8.07724 15.1876 8.48224C14.9101 8.78974 14.9401 9.26974 15.2476 9.53974C15.3901 9.66724 15.5701 9.72724 15.7501 9.72724C15.9601 9.72724 16.1626 9.64474 16.3126 9.47224C16.7101 9.02224 17.2501 8.41474 17.2501 7.28224C17.2501 6.14974 16.7101 5.53474 16.3126 5.08474C15.9676 4.69474 15.7501 4.45474 15.7501 3.89974C15.7501 3.34474 15.9226 3.14224 16.2676 2.75224L16.3051 2.70724C16.5826 2.39974 16.5301 1.94224 16.2226 1.67224C15.9151 1.39474 15.4201 1.44724 15.1426 1.75474C14.7451 2.20474 14.2426 2.76724 14.2426 3.89974C14.2426 5.03224 14.7826 5.63974 15.1801 6.08224C15.5176 6.46474 15.7426 6.71974 15.7426 7.28224L15.7501 7.28974Z" fill="black"/>
<path d="M22.8 10.4854H21.45C20.79 10.4854 20.25 11.0254 20.25 11.6854V11.9854H3.75V11.6854C3.75 11.0254 3.21 10.4854 2.55 10.4854H1.2C0.54 10.4854 0 11.0254 0 11.6854V21.2929C0 21.9604 0.54 22.5004 1.2 22.5004H2.55C3.21 22.5004 3.75 21.9604 3.75 21.2929V21.0004H20.25V21.2929C20.25 21.9604 20.79 22.5004 21.45 22.5004H22.8C23.46 22.5004 24 21.9604 24 21.2929V11.6854C24 11.0254 23.46 10.4854 22.8 10.4854ZM2.25 21.0004H1.5V11.9854H2.25V21.0004ZM22.5 21.0004H21.75V11.9854H22.5V21.0004Z" fill="black"/>
</svg>

<svg width="24" height="24" viewBox="0 0 24 24" fill="none" xmlns="http://www.w3.org/2000/svg"><path d="M8.25 7.29c0 .532-.202.787-.562 1.192a.748.748 0 0 0 .562 1.245c.21 0 .413-.082.563-.255.397-.45.937-1.057.937-2.19 0-1.132-.54-1.747-.937-2.197-.345-.39-.563-.63-.563-1.185s.173-.758.518-1.148l.037-.045c.278-.307.225-.765-.082-1.035-.308-.277-.803-.225-1.08.083-.398.45-.9 1.012-.9 2.145 0 1.132.54 1.74.937 2.182.338.383.563.638.563 1.2l.007.008Zm3.75 0c0 .532-.202.787-.562 1.192A.748.748 0 0 0 12 9.727c.21 0 .413-.082.563-.255.397-.45.937-1.057.937-2.19 0-1.132-.54-1.747-.937-2.197-.345-.39-.563-.63-.563-1.185s.173-.758.518-1.148l.037-.045c.278-.307.225-.765-.082-1.035-.308-.277-.803-.225-1.08.083-.398.45-.9 1.012-.9 2.145 0 1.132.54 1.74.937 2.182.338.383.563.638.563 1.2L12 7.29Zm3.75 0c0 .532-.202.787-.562 1.192a.748.748 0 0 0 .562 1.245c.21 0 .413-.082.563-.255.397-.45.937-1.057.937-2.19 0-1.132-.54-1.747-.937-2.197-.345-.39-.563-.63-.563-1.185s.173-.758.518-1.148l.037-.045c.278-.307.225-.765-.082-1.035-.308-.277-.803-.225-1.08.083-.398.45-.9 1.012-.9 2.145 0 1.132.54 1.74.937 2.182.338.383.563.638.563 1.2l.007.008Zm7.05 3.194h-1.35c-.66 0-1.2.54-1.2 1.2v.3H3.75v-.3c0-.66-.54-1.2-1.2-1.2H1.2c-.66 0-1.2.54-1.2 1.2v9.608c0 .667.54 1.207 1.2 1.207h1.35c.66 0 1.2-.54 1.2-1.207v-.293h16.5v.293c0 .667.54 1.207 1.2 1.207h1.35c.66 0 1.2-.54 1.2-1.207v-9.608c0-.66-.54-1.2-1.2-1.2ZM2.25 21H1.5v-9.015h.75V21Zm20.25 0h-.75v-9.015h.75V21Z" fill="currentColor"/></svg>
